!!!OTL: Der heimkehrende Braeutigam
!!!OTL-incipit:Es wollt' sich ein Juengling erwerben,
!!!ARE: Europa, Mitteleuropa, Deutschland / France, Elsass, Puberg
!!!YOR: 5, S. 140
!!    1820 aufgezeichnet (vor)
!!!SCT: Q0102
!!!TXL: @@DE
!!!YEM: Copyright 1995, estate of Helmut Schaffrath.
**kern	**text
*ICvox	*
*M6/8	*
*k[b-e-]	*
*B-:	*
{8f	1._Es
=1	=1
8.dL	wollt'
16f	sich
8b-J	ein
8.dL	Jüng-
16f	-ling
8b-J	er-
=2	=2
4.dd	-wer-
8b-	-ben,
8r}	.
{8dd	er-
=3	=3
8.ccL	-wer-
16b-	-ben
16a	in
16aJ	der
8b-L	Ju-
8g	-gend
8ccJ	sein
=4	=4
[4.f	Weib.
8f]	.
8r}	.
{8f	Dem-
=5	=5
8.ee-L	-sel-
16dd	-ben,
8ccJ	dem
8b-L	kommt
8a	es
8gJ	ge-
=6	=6
(8b-L	-ra-
8cc	.
8ddJ)	.
8f	-ten,
8r}	.
{8f	er
=7	=7
8.gL	muß
16g	in
8gJ	den
8b-L	Krieg,
8a	in
8gJ	den
=8	=8
4.dd}	Streit,
{4.ee-	er
=9	=9
8.ddL	muß
16cc	in
8b-J	den
8.ccL	Krieg,
16b-	in
8aJ	den
=10	=10
[4.b-	Streit.
8b-]	.
8r}	.
==	==
!!!AGN: Ballade, Ehe - Geloebnis, Betrug
!!!ONB: ESAC (Essen Associative Code) Database: BALLADE
!!!AMT: compound duple
!!!AIN: vox
!!!EED: Helmut Schaffrath
!!!EEV: 1.0
!!@@COMMENT:"[Kassel u. Lefftz]. Elsässische Volbilieder
!(Reindruckhogen). 24 Nr. 92. Puberg. vor 1820."	!
!!@@END:
!!!source: Deutsche Volkslieder mit ihren Melodien Balladen. Herausgegeben vom Deutschen Volksliedarchiv. Fünfter Teil. Freiburg/Breisgau 1965.
!!!page: 140
!!!ENC: Anna Maria Matuszewska
!!!EEV: 2025/02/28
*-	*-
